src/assets/icons/sort-alpha-down-alt.svg

<svg width="14" height="14" viewBox="0 0 14 14" fill="none" xmlns="http://www.w3.org/2000/svg">
<g id="sort-alpha-down-alt">
<g clip-path="url(#clip0_156_4678)">
<g id="Vector">
<path d="M5.39246 10.5849L4.29052 11.6868V0.677419C4.29052 0.303484 3.98704 0 3.6131 0C3.23917 0 2.93568 0.303484 2.93568 0.677419V11.6868L1.83375 10.5849C1.5691 10.3203 1.14007 10.3203 0.875425 10.5849C0.61078 10.8495 0.61078 11.2786 0.875425 11.5432L3.13349 13.8013C3.19581 13.8636 3.27078 13.9133 3.35388 13.9476C3.43697 13.9819 3.52459 14 3.6131 14C3.70162 14 3.78923 13.9819 3.87233 13.9476C3.95542 13.9133 4.03039 13.8636 4.09272 13.8013L6.35078 11.5432C6.61543 11.2786 6.61543 10.8495 6.35078 10.5849C6.08613 10.3203 5.6571 10.3203 5.39246 10.5849Z" fill="black"/>
<path fill-rule="evenodd" clip-rule="evenodd" d="M13.283 12.6434L11.7385 8.31961C11.5859 7.92942 11.2327 7.67742 10.8389 7.67742C10.4451 7.67742 10.0929 7.92942 9.93298 8.33858L8.39479 12.6434C8.26834 12.9956 8.4517 13.3831 8.80486 13.5086C9.15712 13.6351 9.5446 13.4508 9.67015 13.0986L9.92034 12.3977H11.7566L12.0068 13.0986C12.1052 13.3759 12.3663 13.5484 12.6445 13.5484C12.7203 13.5484 12.7971 13.5357 12.8721 13.5086C13.2261 13.3831 13.4095 12.9947 13.283 12.6434ZM10.4054 11.0419L10.8398 9.8271L11.2743 11.0419H10.4054Z" fill="black"/>
<path d="M9.59697 6.3226C9.18148 6.3226 8.81929 6.07693 8.65038 5.68131C8.47155 5.26493 8.55645 4.78802 8.86445 4.46557L11.4179 1.80557H9.25916C8.88522 1.80557 8.58174 1.50209 8.58174 1.12815C8.58174 0.754215 8.88522 0.450731 9.25916 0.450731H12.07C12.4873 0.450731 12.8513 0.698215 13.0211 1.09563C13.1999 1.51563 13.1141 1.99615 12.8043 2.3177L10.2608 4.96776H12.4204C12.7944 4.96776 13.0979 5.27125 13.0979 5.64518C13.0979 6.01912 12.7944 6.3226 12.4204 6.3226H9.59697Z" fill="black"/>
</g>
</g>
</g>
<defs>
<clipPath id="clip0_156_4678">
<rect width="14" height="14" fill="white"/>
</clipPath>
</defs>
</svg>

<svg xmlns="http://www.w3.org/2000/svg" fill="none" viewBox="0 0 14 14"><g fill="#000" clip-path="url(#a)"><path d="m5.392 10.585-1.101 1.102V.677a.678.678 0 0 0-1.355 0v11.01l-1.102-1.102a.678.678 0 0 0-.959.958l2.258 2.258a.68.68 0 0 0 .74.147.7.7 0 0 0 .22-.147l2.258-2.258a.678.678 0 1 0-.959-.958"/><path fill-rule="evenodd" d="M13.283 12.643 11.739 8.32c-.153-.39-.506-.643-.9-.643s-.746.252-.906.662l-1.538 4.304a.676.676 0 1 0 1.275.455l.25-.7h1.837l.25.7a.677.677 0 1 0 1.276-.455m-2.878-1.601.435-1.215.434 1.215z" clip-rule="evenodd"/><path d="M9.597 6.323c-.416 0-.778-.246-.947-.642a1.12 1.12 0 0 1 .214-1.215l2.554-2.66H9.259a.678.678 0 0 1 0-1.355h2.811c.417 0 .781.247.951.645.179.42.093.9-.217 1.222l-2.543 2.65h2.16a.678.678 0 0 1 0 1.355z"/></g><defs><clipPath id="a"><path fill="#fff" d="M0 0h14v14H0z"/></clipPath></defs></svg>
